X:71
T:Furlana di Virgilio
C:La Piva dal Carner: La pgra 4b
M:6/8
L:1/8
K:C
G|:cGc ece|g2g gag|f2d def|e2c c2G|\
cGc ece|g2g gag|f2d e2d|1 c3 c2G:|2 c3 c3||
K:G
|:d2d d2e|d2c Bcd|c2A cBA|B2G G2B|\
d2d d2e|d2c Bcd|c2A cBA|1 G3 G2B:|2 G3 G2G||
